svg/printer_pos_remove.svg

<svg xmlns="http://www.w3.org/2000/svg" viewBox="0 0 24 24"><path d="M17 9H7V4h10zm2 4c-3.31 0-6 2.69-6 6H4v-7a2 2 0 0 1 2-2h12a2 2 0 0 1 2 2v1.09c-.33-.05-.66-.09-1-.09m-9-1H6v2h4zm12.54 4.88-1.42-1.41L19 17.59l-2.12-2.12-1.41 1.41L17.59 19l-2.12 2.12 1.41 1.42L19 20.41l2.12 2.13 1.42-1.42L20.41 19z"/></svg>

<svg xmlns="http://www.w3.org/2000/svg" id="mdi-printer-pos-remove" viewBox="0 0 24 24"><path d="M17 9H7V4H17V9M19 13C15.69 13 13 15.69 13 19H4V12C4 10.9 4.89 10 6 10H18C19.11 10 20 10.9 20 12V13.09C19.67 13.04 19.34 13 19 13M10 12H6V14H10V12M22.54 16.88L21.12 15.47L19 17.59L16.88 15.47L15.47 16.88L17.59 19L15.47 21.12L16.88 22.54L19 20.41L21.12 22.54L22.54 21.12L20.41 19L22.54 16.88Z" /></svg>
